Sources/FrostedUI/Resources/Icons.xcassets/happy20.imageset/happy-20.svg

<svg width="20" height="20" viewBox="0 0 20 20" fill="none" xmlns="http://www.w3.org/2000/svg" data-fui-icon="true">
  <g clip-path="url(#clip0_882_1300)">
    <path
      d="M10 0C15.4193 0 20 4.58071 20 10C20 15.4193 15.4193 20 10 20C4.58071 20 0 15.4193 0 10C0 4.58071 4.58071 0 10 0ZM10 1.5C5.40913 1.5 1.5 5.40913 1.5 10C1.5 14.5909 5.40913 18.5 10 18.5C14.5909 18.5 18.5 14.5909 18.5 10C18.5 5.40913 14.5909 1.5 10 1.5ZM12.7666 12.665C12.9518 12.2947 13.4021 12.1442 13.7725 12.3291C14.1428 12.5143 14.2933 12.9646 14.1084 13.335L13.6211 13.0918C14.1083 13.3355 14.1076 13.3366 14.1074 13.3369L14.0996 13.3525C14.0958 13.3599 14.0908 13.3692 14.085 13.3799C14.0732 13.4015 14.0573 13.4299 14.0371 13.4639C13.9964 13.5323 13.938 13.6249 13.8604 13.7324C13.7055 13.9468 13.4709 14.2271 13.1445 14.5068C12.4837 15.0733 11.456 15.625 10 15.625C8.54403 15.625 7.51632 15.0733 6.85547 14.5068C6.52912 14.2271 6.29447 13.9468 6.13965 13.7324C6.06199 13.6249 6.00362 13.5323 5.96289 13.4639C5.94266 13.4299 5.92683 13.4015 5.91504 13.3799C5.9092 13.3692 5.90423 13.3599 5.90039 13.3525L5.89258 13.3369L5.8916 13.3359C5.89178 13.3354 5.9048 13.3289 6.37891 13.0918L5.8916 13.335C5.70666 12.9646 5.85719 12.5143 6.22754 12.3291C6.59795 12.1442 7.04725 12.2947 7.23242 12.665V12.6621C7.23553 12.6678 7.24183 12.6803 7.25195 12.6973C7.27226 12.7314 7.30724 12.7854 7.35645 12.8535C7.45551 12.9907 7.6116 13.1792 7.83203 13.3682C8.26494 13.7392 8.9561 14.125 10 14.125C11.0439 14.125 11.7351 13.7392 12.168 13.3682C12.3884 13.1792 12.5445 12.9907 12.6436 12.8535C12.6928 12.7854 12.7277 12.7314 12.748 12.6973L12.7666 12.6641V12.665ZM6 8.25C6.55228 8.25 7 8.69771 7 9.25C7 9.80229 6.55228 10.25 6 10.25C5.44772 10.25 5 9.80229 5 9.25C5 8.69771 5.44772 8.25 6 8.25ZM14 8.25C14.5523 8.25 15 8.69771 15 9.25C15 9.80229 14.5523 10.25 14 10.25C13.4477 10.25 13 9.80229 13 9.25C13 8.69771 13.4477 8.25 14 8.25Z"
      fill="currentColor"
    />
  </g>
  <defs>
    <clipPath id="clip0_882_1300"><path fill="currentColor" d="M0 0H20V20H0z" /></clipPath>
  </defs>
</svg>

<svg xmlns="http://www.w3.org/2000/svg" width="20" height="20" fill="none" data-fui-icon="true" viewBox="0 0 20 20"><g clip-path="url(#a)"><path fill="currentColor" d="M10 0c5.42 0 10 4.58 10 10s-4.58 10-10 10S0 15.42 0 10 4.58 0 10 0m0 1.5c-4.59 0-8.5 3.91-8.5 8.5s3.91 8.5 8.5 8.5 8.5-3.91 8.5-8.5-3.91-8.5-8.5-8.5m2.767 11.165a.75.75 0 0 1 1.341.67l-.487-.243c.487.243.487.245.486.245l-.007.015a2 2 0 0 1-.063.112c-.04.068-.099.16-.177.268-.154.215-.39.495-.715.775-.661.566-1.689 1.118-3.145 1.118s-2.484-.552-3.145-1.118a4.5 4.5 0 0 1-.715-.775 4 4 0 0 1-.24-.38l-.007-.015-.001-.001.487-.244-.487.243a.75.75 0 0 1 1.34-.67v-.003l.02.035q.03.052.104.157c.1.137.256.325.476.514.433.371 1.124.757 2.168.757s1.735-.386 2.168-.757a3 3 0 0 0 .58-.67zM6 8.25a1 1 0 1 1 0 2 1 1 0 0 1 0-2m8 0a1 1 0 1 1 0 2 1 1 0 0 1 0-2"/></g><defs><clipPath id="a"><path fill="currentColor" d="M0 0h20v20H0z"/></clipPath></defs></svg>
